packages/gui/src/assets/img/unknown-small.svg

<?xml version="1.0" encoding="UTF-8" standalone="no"?>
<svg
   width="48"
   height="49"
   viewBox="0 0 48 49"
   fill="none"
   version="1.1"
   id="svg1"
   xmlns="http://www.w3.org/2000/svg"
   xmlns:svg="http://www.w3.org/2000/svg">
  <defs
     id="defs1" />
  <path
     fill-rule="evenodd"
     clip-rule="evenodd"
     d="M 8.29058,37.3162 36.3811,9.22565 C 28.5312,3.02303 17.1053,3.54546 9.85786,10.7929 2.61039,18.0404 2.08796,29.4663 8.29058,37.3162 Z m 2.77882,2.878 c 7.8579,6.6738 19.6543,6.3015 27.0727,-1.117 7.4185,-7.4185 7.7908,-19.2148 1.1171,-27.0728 z m 29.9012,1.7114 c -9.3726,9.3726 -24.5686,9.3726 -33.94116,0 -9.37259,-9.3726 -9.37258,-24.5685 0,-33.9411 9.37256,-9.37258 24.56856,-9.37258 33.94116,0 9.3725,9.3726 9.3725,24.5685 0,33.9411 z"
     fill="#3AAC59"
     id="path1"
     style="fill:#853aac;fill-opacity:1" />
</svg>

<svg width="100%" height="100%" viewBox="0 0 48 49" fill="none" xmlns="http://www.w3.org/2000/svg">
<path fill-rule="evenodd" clip-rule="evenodd" d="M8.29058 37.3162L36.3811 9.22565C28.5312 3.02303 17.1053 3.54546 9.85786 10.7929C2.61039 18.0404 2.08796 29.4663 8.29058 37.3162ZM11.0694 40.1942C18.9273 46.868 30.7237 46.4957 38.1421 39.0772C45.5606 31.6587 45.9329 19.8624 39.2592 12.0044L11.0694 40.1942ZM40.9706 41.9056C31.598 51.2782 16.402 51.2782 7.02944 41.9056C-2.34315 32.533 -2.34314 17.3371 7.02944 7.9645C16.402 -1.40808 31.598 -1.40808 40.9706 7.9645C50.3431 17.3371 50.3431 32.533 40.9706 41.9056Z" fill="#3AAC59"/>
</svg>
